billpay/loans.svg

<svg width="48" height="48" viewBox="0 0 48 48" fill="none" xmlns="http://www.w3.org/2000/svg">
<mask id="mask0_3027_21345" style="mask-type:alpha" maskUnits="userSpaceOnUse" x="0" y="0" width="48" height="48">
<rect width="48" height="48" fill="#D9D9D9"/>
</mask>
<g mask="url(#mask0_3027_21345)">
<mask id="mask1_3027_21345" style="mask-type:alpha" maskUnits="userSpaceOnUse" x="0" y="0" width="48" height="48">
<rect width="48" height="48" fill="#D9D9D9"/>
</mask>
<g mask="url(#mask1_3027_21345)">
<path d="M24.2 42C23.6333 42 23.1583 41.8083 22.775 41.425C22.3917 41.0417 22.2 40.5667 22.2 40C22.2 39.7667 22.25 39.525 22.35 39.275C22.45 39.025 22.6 38.8 22.8 38.6L32.05 29.35L30.6 27.9L21.4 37.15C21.2 37.35 20.9833 37.5 20.75 37.6C20.5167 37.7 20.2667 37.75 20 37.75C19.4333 37.75 18.9583 37.5583 18.575 37.175C18.1917 36.7917 18 36.3167 18 35.75C18 35.4167 18.05 35.1417 18.15 34.925C18.25 34.7083 18.3833 34.5167 18.55 34.35L27.8 25.1L26.4 23.7L17.15 32.9C16.95 33.1 16.7333 33.25 16.5 33.35C16.2667 33.45 16 33.5 15.7 33.5C15.1667 33.5 14.7 33.3 14.3 32.9C13.9 32.5 13.7 32.0333 13.7 31.5C13.7 31.2333 13.75 30.9833 13.85 30.75C13.95 30.5167 14.1 30.3 14.3 30.1L23.55 20.85L22.1 19.45L12.9 28.7C12.7333 28.8667 12.5333 29 12.3 29.1C12.0667 29.2 11.7833 29.25 11.45 29.25C10.8833 29.25 10.4083 29.0583 10.025 28.675C9.64167 28.2917 9.45 27.8167 9.45 27.25C9.45 26.9833 9.5 26.7333 9.6 26.5C9.7 26.2667 9.85 26.05 10.05 25.85L21.2 14.7L28.7 22.25C29.0667 22.6167 29.5 22.9083 30 23.125C30.5 23.3417 31 23.45 31.5 23.45C32.5667 23.45 33.5 23.075 34.3 22.325C35.1 21.575 35.5 20.6167 35.5 19.45C35.5 18.9833 35.4167 18.5 35.25 18C35.0833 17.5 34.7833 17.0333 34.35 16.6L25.4 7.65C25.9667 7.11667 26.6 6.70833 27.3 6.425C28 6.14167 28.7 6 29.4 6C30.2667 6 31.0667 6.14167 31.8 6.425C32.5333 6.70833 33.2 7.15 33.8 7.75L42.25 16.25C42.85 16.85 43.2917 17.5167 43.575 18.25C43.8583 18.9833 44 19.8333 44 20.8C44 21.4667 43.85 22.1417 43.55 22.825C43.25 23.5083 42.8167 24.1333 42.25 24.7L25.6 41.4C25.3333 41.6667 25.1 41.8333 24.9 41.9C24.7 41.9667 24.4667 42 24.2 42ZM7.05 26L5.75 24.7C5.18333 24.1667 4.75 23.5333 4.45 22.8C4.15 22.0667 4 21.3 4 20.5C4 19.6333 4.16667 18.8333 4.5 18.1C4.83333 17.3667 5.25 16.75 5.75 16.25L14.2 7.75C14.7333 7.21667 15.3667 6.79167 16.1 6.475C16.8333 6.15833 17.55 6 18.25 6C19.15 6 19.95 6.125 20.65 6.375C21.35 6.625 22.0333 7.08333 22.7 7.75L32.95 18C33.15 18.2 33.3 18.4167 33.4 18.65C33.5 18.8833 33.55 19.1333 33.55 19.4C33.55 19.9333 33.35 20.4 32.95 20.8C32.55 21.2 32.0833 21.4 31.55 21.4C31.25 21.4 31 21.3583 30.8 21.275C30.6 21.1917 30.3833 21.0333 30.15 20.8L21.15 11.9L7.05 26Z" fill="white"/>
</g>
</g>
</svg>

<svg width="48" height="48" viewBox="0 0 48 48" fill="none" xmlns="http://www.w3.org/2000/svg"><path d="M24.2 42q-.85 0-1.425-.575T22.2 40q0-.35.15-.725t.45-.675l9.25-9.25-1.45-1.45-9.2 9.25q-.3.3-.65.45t-.75.15q-.85 0-1.425-.575T18 35.75q0-.5.15-.825t.4-.575l9.25-9.25-1.4-1.4-9.25 9.2q-.3.3-.65.45t-.8.15q-.8 0-1.4-.6t-.6-1.4q0-.4.15-.75t.45-.65l9.25-9.25-1.45-1.4-9.2 9.25q-.25.25-.6.4t-.85.15q-.85 0-1.425-.575T9.45 27.25q0-.4.15-.75t.45-.65L21.2 14.7l7.5 7.55q.55.55 1.3.875t1.5.325q1.6 0 2.8-1.125t1.2-2.875q0-.7-.25-1.45t-.9-1.4L25.4 7.65a6.1 6.1 0 0 1 1.9-1.225A5.6 5.6 0 0 1 29.4 6q1.3 0 2.4.425t2 1.325l8.45 8.5q.9.9 1.325 2T44 20.8q0 1-.45 2.025a6.1 6.1 0 0 1-1.3 1.875L25.6 41.4q-.4.4-.7.5t-.7.1M7.05 26l-1.3-1.3a5.4 5.4 0 0 1-1.3-1.9Q4 21.7 4 20.5q0-1.3.5-2.4t1.25-1.85l8.45-8.5a6 6 0 0 1 1.9-1.275Q17.2 6 18.25 6q1.35 0 2.4.375T22.7 7.75L32.95 18q.3.3.45.65t.15.75q0 .8-.6 1.4t-1.4.6q-.45 0-.75-.125t-.65-.475l-9-8.9z" fill="#fff"/></svg>
